!!!COM:	Bach, Johann Sebastian
!!!OMV:	Sei Lob und Ehr dem h&ouml;chsten Gut
!!!OTL:	Sei Lob und Ehr dem h&ouml;chsten Gut
**kern	**fb	**kern	**kern	**kern
*part4	*part4	*part3	*part2	*part1
*staff4	*	*staff3	*staff2	*staff1
*I"Voice	*	*I"Voice	*I"Voice	*I"Voice
*I'V	*	*I'V	*I'V	*I'V
*clefF4	*	*clefGv2	*clefG2	*clefG2
*k[f#]	*	*k[f#]	*k[f#]	*k[f#]
*M4/4	*	*M4/4	*M4/4	*M4/4
4G	.	8BL	4g	4dd
.	.	8cJ	.	.
=2	=2	=2	=2	=2
8BBL	6	4d	4g	4dd
8CJ	.	.	.	.
4D	5 4	4A	8gL	4dd
.	3	.	8f#J	.
4GG	.	4B	4g	8ddL
.	.	.	.	8eeJ
8AAL	nr6	4A	8cL	4ffn
8BBJ	7 nr5	.	8dJ	.
=3	=3	=3	=3	=3
4C	.	8G	8.eL	4ee
.	.	4c	.	.
.	.	.	16fnJk	.
4GG	5 4	.	4g	4dd
.	3	8B	.	.
4C;	.	4e;	4g;	4cc;
4F#	6	4d	4a	4dd
=4	=4	=4	=4	=4
4.G	.	8dL	4g	8bL
.	.	8cJ	.	8aJ
.	.	8BL	4d	8gL
8F#	6	8AJ	.	8aJ
8EL	.	4G	8gL	4b
8F#J	.	.	8f#J	.
8GL	.	4A	4e	4cc#X
8AJ	#	.	.	.
=	=	=	=	=
8F#L	6	8A	8aL	4dd
8DJ	.	4d	8f#	.
4A	5 4	.	8e	4ee
.	#	8c#X	8gJ	.
4D;	.	4d;	4f#;	4dd;
=5:|!	=5:|!	=5:|!	=5:|!	=5:|!
8GL	.	4d	4b	4dd
8AJ	.	.	.	.
=6	=6	=6	=6	=6
!!linebreak:original
8BL	6	8dL	4b	4gg
8c#XJ	7 5	8eJ	.	.
4d	.	8f#L	8aL	4ff#
.	.	8gJ	8bJ	.
4A	#	8aL	4cc#X	4ee
.	.	8gJ	.	.
4A#X	6	8f#L	4cc#	4ff#
.	.	8eJ	.	.
=7	=7	=7	=7	=7
8BL	6	8dL	4dd	8ggL
8GJ	.	8BJ	.	8ff#J
4An	#	4c#X	8aL	4ee
.	.	.	8gJ	.
4D;	.	4A;	4f#;	4dd;
8GL	.	4B	4g	4dd
8F#J	.	.	.	.
=8	=8	=8	=8	=8
8EL	.	8BL	4g	4gg
8DJ	.	8cnJ	.	.
8CL	.	4d	4g	4dd
8BBJ	6	.	.	.
8CL	.	4c	4g	4ee
8DJ	.	.	.	.
4E	5	8GL	4g	8bL
.	.	8eJ	.	8ccJ
=9	=9	=9	=9	=9
8F#L	6	8dL	8a	4dd
8G#XJ	6 5	8BJ	4b	.
4A	8	8c	.	4cc
.	.	16eLL	8a	.
.	.	16d#XJJ	.	.
4E;	#	4e;	4g#X;	4b;
4Gn	.	4dn	4gn	4b
=10	=10	=10	=10	=10
4F#	6	4d	4a	8aL
.	.	.	.	8bJ
8EL	6	8eL	8gL	4cc
8F#J	6 5	8dJ	8aJ	.
4G	.	4d	8bL	4b
.	.	.	8gJ	.
4C	6	8cL	4e	4a
.	.	8BJ	.	.
=11	=11	=11	=11	=11
!!linebreak:original
4C#X	6	2A	4e	4e
4D	.	.	4d	4f#
4GG;	.	4B;	4d;	4g;
=||	=||	=||	=||	=||
*-	*-	*-	*-	*-
!!!system-decoration: s1,s2,s3,s4
